app/images/icons/pinterest.svg

<svg width="24" height="24" viewBox="0 0 24 24" xmlns="http://www.w3.org/2000/svg">
<path d="M8.03617 13.2951C8.05758 13.2417 8.27174 12.4187 8.28674 12.363C7.95239 11.8599 7.58097 10.2124 7.86586 8.87514C8.1732 6.913 10.2525 5.94844 12.2157 5.94844V5.94478C14.6737 5.94635 16.5135 7.31391 16.5155 9.66913C16.517 11.5126 15.4064 13.9494 13.5101 13.9494C13.5095 13.9494 13.5092 13.9494 13.5086 13.9494C12.8318 13.9494 11.9749 13.6425 11.7502 13.341C11.4909 12.9936 11.4272 12.5649 11.5642 12.1068C11.9 11.035 12.3282 9.75109 12.3782 8.89498C12.4245 8.08702 11.8512 7.56135 11.1077 7.56135C10.5483 7.56135 9.82161 7.8863 9.45946 8.79945C9.16034 9.55807 9.16674 10.3523 9.47904 11.2274C9.6008 11.5694 8.93927 13.7993 8.72733 14.5255C8.20074 16.3293 7.47983 18.6116 7.63396 19.8826L7.78273 21.1055L8.53 20.1262C9.56412 18.7725 10.6334 15.2708 10.9182 14.4187C11.7605 15.5095 13.5145 15.5408 13.719 15.5408C16.2308 15.5408 19.0791 13.0466 18.9983 9.57517C18.9275 6.53088 16.6995 4 12.6962 4V4.00392C8.88837 4.00392 6.66587 6.0364 6.1218 8.60447C5.62353 10.9857 6.73165 12.798 8.03617 13.2951Z" fill="#ECEBEB"/>
</svg>

<svg width="24" height="24" xmlns="http://www.w3.org/2000/svg"><path d="m8.04 13.3.25-.94c-.34-.5-.7-2.15-.42-3.48.3-1.97 2.38-2.93 4.35-2.93 2.45 0 4.3 1.36 4.3 3.72 0 1.84-1.11 4.28-3.01 4.28-.68 0-1.54-.3-1.76-.6a1.34 1.34 0 0 1-.19-1.24c.34-1.07.77-2.36.82-3.21.04-.81-.53-1.34-1.27-1.34-.56 0-1.29.33-1.65 1.24-.3.76-.3 1.55.02 2.43.12.34-.54 2.57-.75 3.3-.53 1.8-1.25 4.08-1.1 5.35l.15 1.23.75-.98c1.03-1.36 2.1-4.86 2.39-5.71.84 1.09 2.6 1.12 2.8 1.12 2.51 0 5.36-2.5 5.28-5.97C18.93 6.53 16.7 4 12.7 4 8.88 4 6.67 6.04 6.12 8.6c-.5 2.39.61 4.2 1.92 4.7Z" fill="#ECEBEB"/></svg>
